X:1
T:Title
%%score 1 2
L:1/8
Q:1/4=95
M:4/4
K:Ab
V:1 treble nm="Grand Piano, Soprano"
V:2 bass nm="Choir Pad, Room for the World"
V:1
 [CE]2 [DF]>[CE] [CE]2 [EA][EB] | [Ec]2 [Fd][Ec] [Ec] [EB]3 | [DE]2 [DF]>[DE] [DE]2 [DB][Ec] | %3
w: By~John~Robson~Sweney * * * * *|||
 [EA]2 [FA]>[DF] [CE]4 | [CE]2 [DF]>[CE] [CE]2 [EA][EB] | [Ec]2 [_Ge]>[Ge] [Fe] [Fd]3 | %6
w: |||
 [Fd]2 [FB][FB] [Ec]2 [EB][EA] | [DB]2 [DF][DG] [CA]4 | [EB]2 [EB][EB] [Ge]3 [Ed] | %9
w: |||
 [Ec][Fd][Ec][DB] [DB] [CA]3 | [DA]2 [EG][DF] [CE]2 [CA]2 | [Ec][Ec][EB][=DA] [Ec] [EB]3 | %12
w: |||
 [Ec]2 [=D_c][E=c] [CA]3 [CE] | [EA][EA][EB][_Gc] [Fe] [Fd]3 | [Fd]2 [Fc][FB] [Ec]2 [EB][EA] | %15
w: |||
 [DB]2 [DF][DG] [CA]4- | [CA]4 z4 |] %17
w: ||
V:2
 [A,,A,]2 [A,,A,]>[A,,A,] [A,,A,]2 [C,A,][E,G,] | A,2 A,A, [E,A,] [E,G,]3 | %2
 [E,G,]2 [E,G,]>[E,G,] [E,G,]2 [E,G,][E,D] | [A,C]2 [D,D]>[D,A,] [A,,A,]4 | %4
 [A,,A,]2 [A,,A,]>[A,,A,] [A,,A,]2 [C,A,][E,G,] | A,2 [C,A,]>[C,A,] [D,A,] [D,A,]3 | %6
 [D,A,]2 [D,A,][=D,A,] [E,A,]2 [E,=D][E,C] | [E,G,]2 [E,A,][E,B,] [A,,A,]4 | %8
 [E,G,]2 [E,G,][E,G,] [E,B,]3 [G,B,] | A,[A,,A,][A,,A,][A,,E,] [A,,E,] [A,,E,]3 | %10
 [D,F,]2 [D,A,][D,A,] [A,,A,]2 [A,,A,]2 | A,A,[G,B,][F,B,] [E,A,] [E,G,]3 | %12
 [A,,A,]2 [A,,A,][A,,A,] [A,,E,]3 [A,,A,] | [C,A,][C,A,][E,G,]A, [D,A,] [D,A,]3 | %14
 [D,A,]2 [D,A,][=D,A,] [E,A,]2 [E,D][E,C] | [E,G,]2 [E,A,][E,A,] [A,,A,]4- | [A,,A,]4 z4 |] %17

